icons/flameshot-filled.svg

<svg width="256" height="256" viewBox="0 0 256 256" fill="none" xmlns="http://www.w3.org/2000/svg">
<path d="M196 0H60C26.8629 0 0 26.8629 0 60V196C0 229.137 26.8629 256 60 256H196C229.137 256 256 229.137 256 196V60C256 26.8629 229.137 0 196 0Z" fill="#8800AA"/>
<path d="M134.369 112.669C229.351 94.3623 233 53 233 53C233 53 225.52 181.188 156.106 187.97C68.1419 196.564 55 238 55 238C55 238 78.5237 123.432 134.369 112.669Z" fill="#FF0066"/>
<path d="M77.0154 107.328C157.826 73.3799 150.424 18 150.424 18C150.424 18 195.04 130.978 128.155 157.317C53.4379 186.741 56.7625 237 56.7625 237C56.7625 237 29.5544 127.266 77.0154 107.328Z" fill="#FF6600"/>
<path d="M29.9585 137.011C75.0026 77.6408 64.8711 36 64.8711 36C64.8711 36 122.582 108.333 83.3114 153.134C39.442 203.182 58.5473 238 58.5473 238C58.5473 238 4.12288 171.064 29.9585 137.011Z" fill="#FFCC00"/>
</svg>

<svg xmlns="http://www.w3.org/2000/svg" width="256" height="256" fill="none"><path fill="#80A" d="M196 0H60C26.863 0 0 26.863 0 60v136c0 33.137 26.863 60 60 60h136c33.137 0 60-26.863 60-60V60c0-33.137-26.863-60-60-60"/><path fill="#F06" d="M134.369 112.669C229.351 94.362 233 53 233 53s-7.48 128.188-76.894 134.97C68.142 196.564 55 238 55 238s23.524-114.568 79.369-125.331"/><path fill="#F60" d="M77.015 107.328C157.826 73.38 150.424 18 150.424 18s44.616 112.978-22.269 139.317C53.438 186.741 56.763 237 56.763 237S29.554 127.266 77.015 107.328"/><path fill="#FC0" d="M29.959 137.011C75.003 77.641 64.87 36 64.87 36s57.711 72.333 18.44 117.134C39.442 203.182 58.547 238 58.547 238S4.123 171.064 29.96 137.011"/></svg>
